packages/astro-components-stencil/src/icons/camera-alt.svg

<svg xmlns="http://www.w3.org/2000/svg" viewBox="0 0 24 24"><g xmlns="http://www.w3.org/2000/svg" id="camera-alt" fill-rule="nonzero">
            <path d="M12 15a3 3 0 110-6 3 3 0 010 6zm8-11c1.1 0 2 .9 2 2v12c0 1.1-.9 2-2 2H4c-1.1 0-2-.9-2-2V6c0-1.1.9-2 2-2h3.17L8.4 2.65c.38-.41.92-.65 1.48-.65h4.24c.56 0 1.1.24 1.47.65L16.83 4H20zm-8 13c2.76 0 5-2.24 5-5s-2.24-5-5-5-5 2.24-5 5 2.24 5 5 5z"/>
        </g></svg>

<svg width="24" height="24" viewBox="0 0 24 24" fill="none" xmlns="http://www.w3.org/2000/svg">
<path fill-rule="evenodd" clip-rule="evenodd" d="M20 4C21.1 4 22 4.9 22 6V18C22 19.1 21.1 20 20 20H4C2.9 20 2 19.1 2 18V6C2 4.9 2.9 4 4 4H7.17L8.4 2.65C8.78 2.24 9.32 2 9.88 2H14.12C14.68 2 15.22 2.24 15.59 2.65L16.83 4H20ZM12 15C10.3431 15 9 13.6569 9 12C9 10.3431 10.3431 9 12 9C13.6569 9 15 10.3431 15 12C15 13.6569 13.6569 15 12 15ZM17 12C17 14.76 14.76 17 12 17C9.24 17 7 14.76 7 12C7 9.24 9.24 7 12 7C14.76 7 17 9.24 17 12Z" fill="black"/>
</svg>
